X: 39839
T: Thirteen Arches, The
R: reel
M: 4/4
K: Cmajor
CGE CG, B,DB,|:CEGc Bcd e|fd ~d2 B cdB|cBGE FD GF|EC ~C2 B, CDF|
EG ~G2 Bcd e|fed efbag|1 ^fgB dc2 GF|EC ~C2 G,B,DB,:|2 ^fgBd c2 (3ABc||
|:dGBd (3fgf df|ec ~c2G cdc|BG ~G2 (3ABc dc|BG GFD EFD|
(3EFE CE ~F3D|E G~G2 B cde|f edc Bg dc|1 B Ged c2 Bc:|2 BGFD C2 z2||

